**kern	**kern	**dynam
*part1	*part1	*part1
*staff2	*staff1	*
*I"Piano	*	*
*clefF4	*clefG2	*
*k[f#c#g#]	*k[f#c#g#]	*
=1	=1	=1
*	*^	*
2E	2g#	4c# 4e	.
.	.	4B 4d	.
*	*v	*v	*
=	=	=
4AA)	4A) 4c# 4a	.
[4AA [4E	(4e [4cc# [4ee	>
=	=	=
2AA_ 2E_	4f# 4cc#] 4ee]	.
.	4g# 4b 4dd	.
=	=	=
4AA] 4E]	4a) 4cc#	]
(4AA	(4c# 4e 4a	pp
=	=	=
4D	4d 4f# 4a	.
4AA	4c# 4e 4a	.
=	=	=
4D	4d 4f# 4a	.
4AA	4c# 4e 4a	.
=	=	=
4D	4d 4f# 4a	.
4AA	4c# 4e 4a	.
=	=	=
*-	*-	*-
!!!system-decoration: {(s1,s2)}
